X: 18318
T: Humours Of Tullyknockbrine, The
R: reel
M: 4/4
K: Gmajor
G2 dG BdGB|dz B/c/d ecAF|GddG Bcde|dBAd BGEF|
G/G/G dG BdGB|dG B/c/d ecAF|Gddc Bcde|dBAc BGBd||
egfg egfe|^cdfd Adfd|egfg efga|b/a/g a/g/f geed|
ebge Bge^c|defd A~F3|~G3A Bcde|dBAd BGEF||

